X:1
T:Cruel Brother
M:4/4
L:1/4
K:C
 C/2| E G G3/2 G/2| c B A3/2 G/2| G2 G3/2 A/2| c c f3/2 f/2| e g/2g/2 d d/2c/2|\
 A GG/2-A/2 c/2d/2| e e d3/2 c/2| A G G3/2||
